; G-Code generated by Simplify3D(R) Version 3.1.1
; Jun 24, 2017 at 12:38:46 PM
; Settings Summary
;   processName,Process1
;   applyToModels,xyzCalibration_cube
;   profileName,0.2 General
;   profileVersion,2017-06-20 21:15:06
;   baseProfile,Monoprice Maker Select (modified)
;   printMaterial,PLA
;   printQuality,Medium
;   printExtruders,
;   extruderName,Primary Extruder
;   extruderToolheadNumber,0
;   extruderDiameter,0.4
;   extruderAutoWidth,1
;   extruderWidth,0.48
;   extrusionMultiplier,1
;   extruderUseRetract,1
;   extruderRetractionDistance,10
;   extruderExtraRestartDistance,0
;   extruderRetractionZLift,0.2
;   extruderRetractionSpeed,3600
;   extruderUseCoasting,0
;   extruderCoastingDistance,0.2
;   extruderUseWipe,0
;   extruderWipeDistance,5
;   primaryExtruder,0
;   layerHeight,0.2
;   topSolidLayers,4
;   bottomSolidLayers,3
;   perimeterOutlines,3
;   printPerimetersInsideOut,0
;   startPointOption,2
;   startPointOriginX,0
;   startPointOriginY,0
;   startPointOriginZ,300
;   sequentialIslands,0
;   spiralVaseMode,0
;   firstLayerHeightPercentage,90
;   firstLayerWidthPercentage,125
;   firstLayerUnderspeed,0.5
;   useRaft,0
;   raftExtruder,0
;   raftLayers,3
;   raftOffset,3
;   raftSeparationDistance,0.14
;   raftInfill,85
;   disableRaftBaseLayers,0
;   useSkirt,1
;   skirtExtruder,0
;   skirtLayers,1
;   skirtOutlines,3
;   skirtOffset,3
;   usePrimePillar,0
;   primePillarExtruder,999
;   primePillarWidth,12
;   primePillarLocation,7
;   primePillarSpeedMultiplier,1
;   useOozeShield,0
;   oozeShieldExtruder,999
;   oozeShieldOffset,2
;   oozeShieldOutlines,1
;   oozeShieldSidewallShape,1
;   oozeShieldSidewallAngle,30
;   oozeShieldSpeedMultiplier,1
;   infillExtruder,0
;   internalInfillPattern,Rectilinear
;   externalInfillPattern,Rectilinear
;   infillPercentage,15
;   outlineOverlapPercentage,25
;   infillExtrusionWidthPercentage,125
;   minInfillLength,0
;   infillLayerInterval,1
;   infillAngles,-45,45
;   overlapInfillAngles,0
;   generateSupport,1
;   supportExtruder,0
;   supportInfillPercentage,75
;   supportExtraInflation,0
;   denseSupportLayers,0
;   denseSupportInfillPercentage,70
;   supportLayerInterval,1
;   supportHorizontalPartOffset,0.5
;   supportUpperSeparationLayers,2
;   supportLowerSeparationLayers,1
;   supportType,0
;   supportGridSpacing,4
;   maxOverhangAngle,45
;   supportAngles,45
;   temperatureName,Primary Extruder,Heated Bed
;   temperatureNumber,0,0
;   temperatureSetpointCount,1,1
;   temperatureSetpointLayers,1,1
;   temperatureSetpointTemperatures,206,60
;   temperatureStabilizeAtStartup,1,1
;   temperatureHeatedBed,0,1
;   temperatureRelayBetweenLayers,0,0
;   temperatureRelayBetweenLoops,0,0
;   fanLayers,1,2
;   fanSpeeds,0,100
;   blipFanToFullPower,0
;   adjustSpeedForCooling,1
;   minSpeedLayerTime,15
;   minCoolingSpeedSlowdown,20
;   increaseFanForCooling,0
;   minFanLayerTime,45
;   maxCoolingFanSpeed,100
;   increaseFanForBridging,0
;   bridgingFanSpeed,100
;   use5D,1
;   relativeEdistances,0
;   allowEaxisZeroing,1
;   independentExtruderAxes,0
;   includeM10123,0
;   stickySupport,1
;   applyToolheadOffsets,0
;   gcodeXoffset,0
;   gcodeYoffset,0
;   gcodeZoffset,0
;   overrideMachineDefinition,1
;   machineTypeOverride,0
;   strokeXoverride,200
;   strokeYoverride,200
;   strokeZoverride,180
;   originOffsetXoverride,0
;   originOffsetYoverride,0
;   originOffsetZoverride,0
;   homeXdirOverride,-1
;   homeYdirOverride,-1
;   homeZdirOverride,-1
;   flipXoverride,1
;   flipYoverride,-1
;   flipZoverride,1
;   toolheadOffsets,0,0|0,0|0,0|0,0|0,0|0,0
;   overrideFirmwareConfiguration,1
;   firmwareTypeOverride,RepRap (Marlin/Repetier/Sprinter)
;   GPXconfigOverride,r2
;   baudRateOverride,115200
;   overridePrinterModels,1
;   printerModelsOverride
;   startingGcode,
;   layerChangeGcode,
;   retractionGcode,
;   toolChangeGcode,
;   endingGcode,G28 X0; home X-axis,M104 S0 ; turn off extruder,M140 S0 ; turn off bed,M84 ; disable motors
;   exportFileFormat,gcode
;   celebration,0
;   celebrationSong,Random Song
;   postProcessing,
;   defaultSpeed,3600
;   outlineUnderspeed,0.5
;   solidInfillUnderspeed,0.8
;   supportUnderspeed,0.8
;   rapidXYspeed,4800
;   rapidZspeed,1002
;   minBridgingArea,50
;   bridgingExtraInflation,0
;   bridgingExtrusionMultiplier,1
;   bridgingSpeedMultiplier,1
;   filamentDiameter,1.75
;   filamentPricePerKg,46
;   filamentDensity,1.25
;   useMinPrintHeight,0
;   minPrintHeight,22
;   useMaxPrintHeight,0
;   maxPrintHeight,21.2
;   useDiaphragm,0
;   diaphragmLayerInterval,20
;   robustSlicing,1
;   mergeAllIntoSolid,0
;   onlyRetractWhenCrossingOutline,1
;   retractBetweenLayers,1
;   useRetractionMinTravel,0
;   retractionMinTravel,3
;   retractWhileWiping,0
;   onlyWipeOutlines,1
;   avoidCrossingOutline,1
;   maxMovementDetourFactor,50
;   toolChangeRetractionDistance,12
;   toolChangeExtraRestartDistance,-0.5
;   toolChangeRetractionSpeed,600
;   allowThinWallGapFill,1
;   thinWallAllowedOverlapPercentage,10
;   horizontalSizeCompensation,0
G90
M82
M106 S0
M140 S60
M190 S60
M104 S206 T0
M109 S206 T0
G92 E0
G1 E-10.0000 F3600
G1 Z0.380 F1002
; layer 1, Z = 0.18
T0
; tool H0.200 W0.600
; skirt
G1 X85.983 Y88.078 F4800
G1 Z0.180 F1002
G1 E0.0000 F1080
G92 E0
G1 X88.078 Y85.983 E0.1478 F1800
G1 X88.519 Y85.800 E0.1716
G1 X111.481 Y85.800 E1.3172
G1 X111.922 Y85.983 E1.3411
G1 X114.017 Y88.078 E1.4889
G1 X114.200 Y88.519 E1.5127
G1 X114.200 Y111.481 E2.6583
G1 X114.017 Y111.922 E2.6821
G1 X111.922 Y114.017 E2.8299
G1 X111.481 Y114.200 E2.8537
G1 X88.519 Y114.200 E3.9993
G1 X88.078 Y114.017 E4.0232
G1 X85.983 Y111.922 E4.1710
G1 X85.800 Y111.481 E4.1948
G1 X85.800 Y88.519 E5.3404
G1 X85.983 Y88.078 E5.3642
G1 X86.390 Y88.350 F4800
G92 E0
G1 X88.350 Y86.390 E0.1383 F1800
G1 X88.614 Y86.280 E0.1526
G1 X111.386 Y86.280 E1.2887
G1 X111.650 Y86.390 E1.3029
G1 X113.610 Y88.350 E1.4412
G1 X113.720 Y88.614 E1.4555
G1 X113.720 Y111.386 E2.5916
G1 X113.610 Y111.650 E2.6059
G1 X111.650 Y113.610 E2.7442
G1 X111.386 Y113.720 E2.7585
G1 X88.614 Y113.720 E3.8946
G1 X88.350 Y113.610 E3.9088
G1 X86.390 Y111.650 E4.0471
G1 X86.280 Y111.386 E4.0614
G1 X86.280 Y88.614 E5.1975
G1 X86.390 Y88.350 E5.2118
G1 X86.797 Y88.621 F4800
G92 E0
G1 X88.621 Y86.797 E0.1288 F1800
G1 X88.710 Y86.760 E0.1335
G1 X111.290 Y86.760 E1.2601
G1 X111.379 Y86.797 E1.2648
G1 X113.203 Y88.621 E1.3936
G1 X113.240 Y88.710 E1.3984
G1 X113.240 Y111.290 E2.5249
G1 X113.203 Y111.379 E2.5297
G1 X111.379 Y113.203 E2.6584
G1 X111.290 Y113.240 E2.6632
G1 X88.710 Y113.240 E3.7898
G1 X88.621 Y113.203 E3.7945
G1 X86.797 Y111.379 E3.9233
G1 X86.760 Y111.290 E3.9280
G1 X86.760 Y88.710 E5.0546
G1 X86.797 Y88.621 E5.0594
; outer perimeter
G1 X90.300 Y90.300 F4800
G92 E0
G1 X109.700 Y90.300 E0.9679 F900
G1 X109.700 Y109.700 E1.9357
G1 X90.300 Y109.700 E2.9036
G1 X90.300 Y90.300 E3.8715
; inner perimeter
G1 X90.900 Y90.900 F4800
G92 E0
G1 X109.100 Y90.900 E0.9080 F1200
G1 X109.100 Y109.100 E1.8160
G1 X90.900 Y109.100 E2.7240
G1 X90.900 Y90.900 E3.6320
; inner perimeter
G1 X91.500 Y91.500 F4800
G92 E0
G1 X108.500 Y91.500 E0.8481 F1500
G1 X108.500 Y108.500 E1.6963
G1 X91.500 Y108.500 E2.5444
G1 X91.500 Y91.500 E3.3925
; solid layer
G1 X107.224 Y91.950 F4800
G92 E0
G1 X108.050 Y92.776 E0.0583 F1440
G1 X108.050 Y93.625 E0.1006
G1 X106.375 Y91.950 E0.2188
G1 X105.526 Y91.950 E0.2612
G1 X108.050 Y94.474 E0.4392
G1 X108.050 Y95.322 E0.4815
G1 X104.678 Y91.950 E0.7195
G1 X103.829 Y91.950 E0.7618
G1 X108.050 Y96.171 E1.0596
G1 X108.050 Y97.019 E1.1019
G1 X102.981 Y91.950 E1.4596
G1 X102.132 Y91.950 E1.5019
G1 X108.050 Y97.868 E1.9194
G1 X108.050 Y98.716 E1.9618
G1 X101.284 Y91.950 E2.4391
G1 X100.435 Y91.950 E2.4815
G1 X108.050 Y99.565 E3.0187
G1 X108.050 Y100.413 E3.0611
G1 X99.587 Y91.950 E3.6582
G1 X98.738 Y91.950 E3.7005
G1 X108.050 Y101.262 E4.3575
G1 X108.050 Y102.110 E4.3999
G1 X97.890 Y91.950 E5.1167
G1 X97.041 Y91.950 E5.1591
G1 X108.050 Y102.959 E5.9358
G1 X108.050 Y103.807 E5.9781
G1 X96.193 Y91.950 E6.8147
G1 X95.344 Y91.950 E6.8571
G1 X108.050 Y104.656 E7.7535
G1 X108.050 Y105.504 E7.7959
G1 X94.496 Y91.950 E8.7522
G1 X93.647 Y91.950 E8.7945
G1 X108.050 Y106.353 E9.8107
G1 X108.050 Y107.201 E9.8531
G1 X92.799 Y91.950 E10.9291
G1 X91.950 Y91.950 E10.9715
G1 X108.050 Y108.050 E12.1074
G1 X107.201 Y108.050 E12.1497
G1 X91.950 Y92.799 E13.2258
G1 X91.950 Y93.647 E13.2681
G1 X106.353 Y108.050 E14.2844
G1 X105.504 Y108.050 E14.3267
G1 X91.950 Y94.496 E15.2830
G1 X91.950 Y95.344 E15.3254
G1 X104.656 Y108.050 E16.2218
G1 X103.807 Y108.050 E16.2642
G1 X91.950 Y96.193 E17.1008
G1 X91.950 Y97.041 E17.1431
G1 X102.959 Y108.050 E17.9198
G1 X102.110 Y108.050 E17.9622
G1 X91.950 Y97.890 E18.6790
G1 X91.950 Y98.738 E18.7214
G1 X101.262 Y108.050 E19.3784
G1 X100.413 Y108.050 E19.4207
G1 X91.950 Y99.587 E20.0178
G1 X91.950 Y100.435 E20.0602
G1 X99.565 Y108.050 E20.5974
G1 X98.716 Y108.050 E20.6397
G1 X91.950 Y101.284 E21.1171
G1 X91.950 Y102.132 E21.1595
G1 X97.868 Y108.050 E21.5770
G1 X97.019 Y108.050 E21.6193
G1 X91.950 Y102.981 E21.9770
G1 X91.950 Y103.829 E22.0193
G1 X96.171 Y108.050 E22.3171
G1 X95.322 Y108.050 E22.3594
G1 X91.950 Y104.678 E22.5974
G1 X91.950 Y105.526 E22.6397
G1 X94.474 Y108.050 E22.8177
G1 X93.625 Y108.050 E22.8601
G1 X91.950 Y106.375 E22.9783
G1 X91.950 Y107.223 E23.0206
G1 X92.777 Y108.050 E23.0789
G92 E0
G1 E-10.0000 F3600
G1 Z0.580 F1002
; layer 2, Z = 0.38
M106 S255
; tool H0.200 W0.480
; outer perimeter
G1 X90.240 Y109.760 F4800
G1 Z0.380 F1002
G1 E0.0000 F3600
G92 E0
G1 X90.240 Y90.240 E0.7791 F1800
G1 X109.760 Y90.240 E1.5582
G1 X109.760 Y109.760 E2.3373
G1 X90.240 Y109.760 E3.1163
; inner perimeter
G1 X90.720 Y109.280 F4800
G92 E0
G1 X90.720 Y90.720 E0.7408 F2400
G1 X109.280 Y90.720 E1.4815
G1 X109.280 Y109.280 E2.2223
G1 X90.720 Y109.280 E2.9631
; inner perimeter
G1 X91.200 Y108.800 F4800
G92 E0
G1 X91.200 Y91.200 E0.7025 F3000
G1 X108.800 Y91.200 E1.4049
G1 X108.800 Y108.800 E2.1074
G1 X91.200 Y108.800 E2.8098
; solid layer
G1 X91.560 Y92.148 F4800
G92 E0
G1 X92.148 Y91.560 E0.0332 F2880
G1 X92.827 Y91.560 E0.0603
G1 X91.560 Y92.827 E0.1318
G1 X91.560 Y93.506 E0.1589
G1 X93.506 Y91.560 E0.2688
G1 X94.185 Y91.560 E0.2958
G1 X91.560 Y94.185 E0.4440
G1 X91.560 Y94.864 E0.4711
G1 X94.864 Y91.560 E0.6576
G1 X95.542 Y91.560 E0.6847
G1 X91.560 Y95.542 E0.9094
G1 X91.560 Y96.221 E0.9365
G1 X96.221 Y91.560 E1.1996
G1 X96.900 Y91.560 E1.2267
G1 X91.560 Y96.900 E1.5281
G1 X91.560 Y97.579 E1.5552
G1 X97.579 Y91.560 E1.8950
G1 X98.258 Y91.560 E1.9221
G1 X91.560 Y98.258 E2.3001
G1 X91.560 Y98.937 E2.3272
G1 X98.937 Y91.560 E2.7436
G1 X99.615 Y91.560 E2.7707
G1 X91.560 Y99.615 E3.2253
G1 X91.560 Y100.294 E3.2524
G1 X100.294 Y91.560 E3.7454
G1 X100.973 Y91.560 E3.7725
G1 X91.560 Y100.973 E4.3038
G1 X91.560 Y101.652 E4.3309
G1 X101.652 Y91.560 E4.9005
G1 X102.331 Y91.560 E4.9276
G1 X91.560 Y102.331 E5.5356
G1 X91.560 Y103.009 E5.5627
G1 X103.009 Y91.560 E6.2089
G1 X103.688 Y91.560 E6.2360
G1 X91.560 Y103.688 E6.9206
G1 X91.560 Y104.367 E6.9477
G1 X104.367 Y91.560 E7.6706
G1 X105.046 Y91.560 E7.6977
G1 X91.560 Y105.046 E8.4589
G1 X91.560 Y105.725 E8.4860
G1 X105.725 Y91.560 E9.2855
G1 X106.404 Y91.560 E9.3126
G1 X91.560 Y106.404 E10.1504
G1 X91.560 Y107.082 E10.1775
G1 X107.082 Y91.560 E11.0536
G1 X107.761 Y91.560 E11.0807
G1 X91.560 Y107.761 E11.9952
G1 X91.560 Y108.440 E12.0223
G1 X108.440 Y91.560 E12.9751
G1 X108.440 Y92.239 E13.0022
G1 X92.239 Y108.440 E13.9166
G1 X92.918 Y108.440 E13.9437
G1 X108.440 Y92.918 E14.8199
G1 X108.440 Y93.596 E14.8470
G1 X93.596 Y108.440 E15.6848
G1 X94.275 Y108.440 E15.7119
G1 X108.440 Y94.275 E16.5114
G1 X108.440 Y94.954 E16.5385
G1 X94.954 Y108.440 E17.2997
G1 X95.633 Y108.440 E17.3268
G1 X108.440 Y95.633 E18.0497
G1 X108.440 Y96.312 E18.0768
G1 X96.312 Y108.440 E18.7613
G1 X96.991 Y108.440 E18.7884
G1 X108.440 Y96.991 E19.4347
G1 X108.440 Y97.669 E19.4618
G1 X97.669 Y108.440 E20.0697
G1 X98.348 Y108.440 E20.0968
G1 X108.440 Y98.348 E20.6664
G1 X108.440 Y99.027 E20.6935
G1 X99.027 Y108.440 E21.2248
G1 X99.706 Y108.440 E21.2519
G1 X108.440 Y99.706 E21.7449
G1 X108.440 Y100.385 E21.7720
G1 X100.385 Y108.440 E22.2267
G1 X101.064 Y108.440 E22.2538
G1 X108.440 Y101.064 E22.6701
G1 X108.440 Y101.742 E22.6972
G1 X101.742 Y108.440 E23.0753
G1 X102.421 Y108.440 E23.1024
G1 X108.440 Y102.421 E23.4421
G1 X108.440 Y103.100 E23.4692
G1 X103.100 Y108.440 E23.7706
G1 X103.779 Y108.440 E23.7977
G1 X108.440 Y103.779 E24.0608
G1 X108.440 Y104.458 E24.0879
G1 X104.458 Y108.440 E24.3127
G1 X105.136 Y108.440 E24.3398
G1 X108.440 Y105.136 E24.5262
G1 X108.440 Y105.815 E24.5533
G1 X105.815 Y108.440 E24.7015
G1 X106.494 Y108.440 E24.7286
G1 X108.440 Y106.494 E24.8384
G1 X108.440 Y107.173 E24.8655
G1 X107.173 Y108.440 E24.9370
G1 X107.852 Y108.440 E24.9641
G1 X108.440 Y107.852 E24.9973
G92 E0
G1 E-10.0000 F3600
G1 Z0.780 F1002
; layer 3, Z = 0.58
; outer perimeter
G1 X109.760 Y109.760 F4800
G1 Z0.580 F1002
G1 E0.0000 F3600
G92 E0
G1 X90.240 Y109.760 E0.7791 F1800
G1 X90.240 Y90.240 E1.5582
G1 X109.760 Y90.240 E2.3373
G1 X109.760 Y109.760 E3.1163
; inner perimeter
G1 X109.280 Y109.280 F4800
G92 E0
G1 X90.720 Y109.280 E0.7408 F2400
G1 X90.720 Y90.720 E1.4815
G1 X109.280 Y90.720 E2.2223
G1 X109.280 Y109.280 E2.9631
; inner perimeter
G1 X108.800 Y108.800 F4800
G92 E0
G1 X91.200 Y108.800 E0.7025 F3000
G1 X91.200 Y91.200 E1.4049
G1 X108.800 Y91.200 E2.1074
G1 X108.800 Y108.800 E2.8098
; solid layer
G1 X92.148 Y108.440 F4800
G92 E0
G1 X91.560 Y107.852 E0.0332 F2880
G1 X91.560 Y107.173 E0.0603
G1 X92.827 Y108.440 E0.1318
G1 X93.506 Y108.440 E0.1589
G1 X91.560 Y106.494 E0.2687
G1 X91.560 Y105.815 E0.2958
G1 X94.185 Y108.440 E0.4440
G1 X94.864 Y108.440 E0.4711
G1 X91.560 Y105.136 E0.6576
G1 X91.560 Y104.458 E0.6846
G1 X95.542 Y108.440 E0.9094
G1 X96.221 Y108.440 E0.9365
G1 X91.560 Y103.779 E1.1996
G1 X91.560 Y103.100 E1.2267
G1 X96.900 Y108.440 E1.5281
G1 X97.579 Y108.440 E1.5552
G1 X91.560 Y102.421 E1.8950
G1 X91.560 Y101.742 E1.9220
G1 X98.258 Y108.440 E2.3001
G1 X98.937 Y108.440 E2.3272
G1 X91.560 Y101.063 E2.7435
G1 X91.560 Y100.385 E2.7706
G1 X99.615 Y108.440 E3.2253
G1 X100.294 Y108.440 E3.2524
G1 X91.560 Y99.706 E3.7454
G1 X91.560 Y99.027 E3.7725
G1 X100.973 Y108.440 E4.3038
G1 X101.652 Y108.440 E4.3309
G1 X91.560 Y98.348 E4.9005
G1 X91.560 Y97.669 E4.9276
G1 X102.331 Y108.440 E5.5356
G1 X103.009 Y108.440 E5.5627
G1 X91.560 Y96.991 E6.2089
G1 X91.560 Y96.312 E6.2360
G1 X103.688 Y108.440 E6.9206
G1 X104.367 Y108.440 E6.9477
G1 X91.560 Y95.633 E7.6706
G1 X91.560 Y94.954 E7.6976
G1 X105.046 Y108.440 E8.4588
G1 X105.725 Y108.440 E8.4859
G1 X91.560 Y94.275 E9.2855
G1 X91.560 Y93.596 E9.3126
G1 X106.404 Y108.440 E10.1504
G1 X107.082 Y108.440 E10.1775
G1 X91.560 Y92.918 E11.0536
G1 X91.560 Y92.239 E11.0807
G1 X107.761 Y108.440 E11.9952
G1 X108.440 Y108.440 E12.0223
G1 X91.560 Y91.560 E12.9751
G1 X92.239 Y91.560 E13.0022
G1 X108.440 Y107.761 E13.9166
G1 X108.440 Y107.082 E13.9437
G1 X92.918 Y91.560 E14.8199
G1 X93.596 Y91.560 E14.8470
G1 X108.440 Y106.404 E15.6848
G1 X108.440 Y105.725 E15.7119
G1 X94.275 Y91.560 E16.5114
G1 X94.954 Y91.560 E16.5385
G1 X108.440 Y105.046 E17.2997
G1 X108.440 Y104.367 E17.3268
G1 X95.633 Y91.560 E18.0497
G1 X96.312 Y91.560 E18.0768
G1 X108.440 Y103.688 E18.7613
G1 X108.440 Y103.009 E18.7884
G1 X96.991 Y91.560 E19.4347
G1 X97.669 Y91.560 E19.4618
G1 X108.440 Y102.331 E20.0697
G1 X108.440 Y101.652 E20.0968
G1 X98.348 Y91.560 E20.6664
